vendor/shopware/storefront/Resources/app/storefront/dist/assets/icon/default/arrow-head-right.svg

<svg xmlns="http://www.w3.org/2000/svg" xmlns:xlink="http://www.w3.org/1999/xlink" width="24" height="24" viewBox="0 0 24 24">
  <defs>
    <path id="icons-default-arrow-head-right-a" d="M11.5,7.91421356 L21.7928932,18.2071068 C22.1834175,18.5976311 22.8165825,18.5976311 23.2071068,18.2071068 C23.5976311,17.8165825 23.5976311,17.1834175 23.2071068,16.7928932 L12.2071068,5.79289322 C11.8165825,5.40236893 11.1834175,5.40236893 10.7928932,5.79289322 L-0.207106781,16.7928932 C-0.597631073,17.1834175 -0.597631073,17.8165825 -0.207106781,18.2071068 C0.183417511,18.5976311 0.816582489,18.5976311 1.20710678,18.2071068 L11.5,7.91421356 Z"/>
  </defs>
  <use fill="#758CA3" fill-rule="evenodd" transform="rotate(90 11.5 12)" xlink:href="#icons-default-arrow-head-right-a"/>
</svg>

<svg xmlns="http://www.w3.org/2000/svg" xmlns:xlink="http://www.w3.org/1999/xlink" width="24" height="24" viewBox="0 0 24 24"><defs><path id="icons-default-arrow-head-right-a" d="m11.5 7.9142 10.2929 10.293c.3905.3904 1.0237.3904 1.4142 0 .3905-.3906.3905-1.0238 0-1.4143l-11-11c-.3905-.3905-1.0237-.3905-1.4142 0l-11 11c-.3905.3905-.3905 1.0237 0 1.4142.3905.3905 1.0237.3905 1.4142 0L11.5 7.9142z"/></defs><use fill="#758CA3" fill-rule="evenodd" transform="rotate(90 11.5 12)" xlink:href="#icons-default-arrow-head-right-a"/></svg>
